X: 21653
T: Killin' Clocks
R: reel
M: 4/4
K: Gmajor
|:G2BG AdBA|GEDE GABd|egeB dedB|AdBG AGED|
G2BG AdBA|GEDE GABd|egeB dedB|1 AdBA G4:|2 AdBA G2Bd||
|:g2dg fdfa|fgdc BGG2|g3f efge|faag fdfa|
g2dg fdfa|gfdc BGG2|ABcd eaag|1 fdcA G2Bd:|2 fdcA G4||

